X: 271
T: 1. Les Plaisirs dela Soci\'et\'e
T: les Plaisirs de la Soci\'et\'e
B: Robert Landrin "Potpourri fran\,cois des contre-danse ancienne tel quil se danse chez la Reine ..." 1760 p.27 #1 dance 9 #1
S: http://memory.loc.gov/cgi-bin/query/D?musdibib:2:./temp/~ammem_EbRS:
Z: 2014 John Chambers <jc:trillian.mit.edu>
N: The 2nd strain has "2 F" ("deux Fois"), but no repeat symbols.  Not fixed.
M: 2/4
L: 1/8
K: G
% - - - - - - - - - - - - - - - - - - - - - - - - -
|:!segno!\
GG/A/ BG | dB ge | dc!+!BA | !+!BA/B/ GD |\
GG/A/ BG | dB ge | dc!+!BA | G2 G2 :|
[|\
"2 F"DD/E/ FG | AD cB | AD cB | AA/B/ A/G/F/E/ |\
DD/E/ FG | AD cB | AD cB | !+!A2 A2 !segno!y |]
|:[K:Gm]\
"2 F"Bd/c/ BA | Gg!+!^fg | dcBA | !+!BA/B/ GD |\
Bd/c/ BA | Gg!+!^fg | dcBc | d2 d2 :|
|:\
"2 F"BB/c/ de | fe/d/ cB | AA/B/ cd | ed/c/ BA |\
Gg!+!^fg | Gg!+!^fg | ed/c/ BA | G2 G2 :|
% - - - - - - - - - - - - - - - - - - - - - - - - -

%%sep 1 1 500
%%sep 1 1 500
